X:107
T:Edinburgh Ladies Pipe Band, The 
C:Joe Buchanan's Scottish Tome - Page 132.0
I:132 0
R:Jig
Z:Carl Allison
L:1/8
M:6/8
K:C
A | d>fA d>fa | g>ag f>ed | g>BB B>cd | e>fd c>BA |
d>fA d>fa | g>ag f>ed | g>BB c2 e | g>fe d2  :|
g | a>ga f>ed | f<ad f>ed | g>BB B>cd | e>fd c>BA |
a>ga f>ed | f<ad f>ed | g>BB c2 e | g>fe d2 g |
a>ga f>ed | f<ad f>ed | g>BB B>cd | e>fd c>BA |
f>ef A>df | a>ga f>ed | g>BB c2 e | g>fe d2  |]
f | A>df A>df | a>ga f>ed | g>BB c2 e | d<fe d>BA |
A>df A>df | a>ga f | g>BB c2 e | d<fd c>BA   :|
g | a>dd f>dd | a>ga f>ed | g>BB c2 e | d<fd c>BA |
a>dd f>dd | a>ga f>ed | g>BB c2 e | g>fe d2 g |
a>dd f>dd | a>ga f>ed | g>BB c2 e | d<fd c>BA |
A>df A>df | a>ga f>ed | g>BB c2 e | g>fe d2  |]

